src/svg/hdd.svg

<svg height="1000" width="1125.0" xmlns="http://www.w3.org/2000/svg">
    <path d="m1125 593.8v187.5c0 51.7-42 93.7-93.7 93.7h-937.5c-51.8 0-93.8-42-93.8-93.7v-187.5c0-51.8 42-93.8 93.8-93.8h937.5c51.7 0 93.7 42 93.7 93.8z m-93.7-156.3h-937.5c-0.1 0-0.2 0.1-0.3 0.1-21.2 0-41.4 4.2-59.9 11.9l188.6-282.8c16.8-25.2 45.4-41.7 78-41.7h524.6c32.6 0 61.2 16.5 78 41.7l188.6 282.8c-18.5-7.7-38.8-12-60-12h-0.2z m-93.8 187.5c-34.5 0-62.5 28-62.5 62.5s28 62.5 62.5 62.5 62.5-28 62.5-62.5-28-62.5-62.5-62.5z m-187.5 0c-34.5 0-62.5 28-62.5 62.5s28 62.5 62.5 62.5 62.5-28 62.5-62.5-28-62.5-62.5-62.5z" />
  </svg>

<svg height="1000" width="1125" xmlns="http://www.w3.org/2000/svg"><path d="M1125 593.8v187.5c0 51.7 -42 93.7 -93.7 93.7H93.8C42 875 0 833 0 781.3V593.8C0 542 42 500 93.8 500h937.5c51.7 0 93.7 42 93.7 93.8zm-93.7 -156.3a155.4 -155.4 0 0 0 60.1 12L902.8 166.7a93.8 -93.8 0 0 1 -78 -41.7H300.2a93.8 -93.8 0 0 1 -78 41.7L33.6 449.5a155.4 -155.4 0 0 0 60.2 -12h937.5zM937.5 625C903 625 875 653 875 687.5s28 62.5 62.5 62.5 62.5 -28 62.5 -62.5S972 625 937.5 625zM750 625c-34.5 0 -62.5 28 -62.5 62.5s28 62.5 62.5 62.5 62.5 -28 62.5 -62.5S784.5 625 750 625z"/></svg>
